; generated by Slic3r 1.1.7 on 2015-06-09 at 09:27:38

; perimeters extrusion width = 0.50mm
; infill extrusion width = 0.58mm
; solid infill extrusion width = 0.60mm
; top infill extrusion width = 0.45mm

G21 ; set units to millimeters

M301 P34 I4 D113     ; set PID nozzle
M304 P162 I17 D378 ; set PID Bed


M104 S245                 ; set extruder temp for hex_hot_end
M140 S110                 ; set bed temp for PEI (reminder ~G1 Z2 ~ M140 S(@-10 degree change) ;if -m is present in file name)

G28                            ; home
G1 Z5 F300                ; move bed down 5mm
M84                            ; disable steppers
G4 S300                     ; wait 5 mins to preheat

G28                            ; home

G90 ; use absolute coordinates
G92 E0
M82 ; use absolute distances for extrusion
M204 S2000
G1 F1200.000 E-1.20000
G92 E0
G1 Z0.350 F9000.000
G1 X47.205 Y42.404 F9000.000
G1 E1.20000 F1200.000
G1 X48.254 Y41.356 E1.24578 F2520.000
G1 X82.847 Y14.248 E2.60241
G1 X84.803 Y13.219 E2.67064
G1 X87.307 Y12.973 E2.74830
G1 X109.304 Y15.353 E3.43129
G1 X111.423 Y15.982 E3.49952 F2520.000
G1 X112.995 Y17.121 E3.55945
G1 X135.252 Y39.378 E4.53108
G1 X275.086 Y181.518 E10.68600
G1 X276.328 Y183.346 E10.75423
G1 X276.735 Y184.631 E10.79582
G1 X279.022 Y196.092 E11.15660
G1 X279.059 Y198.302 E11.22484
G1 X277.830 Y201.095 E11.31901
G1 X250.795 Y235.596 E12.67204
G1 X249.746 Y236.644 E12.71782
G1 X215.153 Y263.752 E14.07444
G1 X213.197 Y264.781 E14.14267
G1 X210.693 Y265.027 E14.22034
G1 X188.696 Y262.647 E14.90333
G1 X186.577 Y262.018 E14.97156
G1 X185.005 Y260.879 E15.03149
G1 X162.748 Y238.622 E16.00312
G1 X22.914 Y96.482 E22.15804
G1 X21.672 Y94.654 E22.22627
G1 X21.265 Y93.370 E22.26786
G1 X18.978 Y81.908 E22.62864
G1 X18.941 Y79.698 E22.69687
G1 X20.170 Y76.905 E22.79105
G1 X47.159 Y42.463 E24.14176
G1 X47.661 Y42.761 F9000.000
G1 X48.611 Y41.811 E24.18324 F2520.000
G1 X83.203 Y14.703 E25.53987
G1 X85.074 Y13.741 E25.60478
G1 X87.244 Y13.548 E25.67206
G1 X109.242 Y15.929 E26.35505
G1 X111.253 Y16.545 E26.41997 F2520.000
G1 X112.586 Y17.530 E26.47115
G1 X134.840 Y39.784 E27.44264
G1 X274.673 Y181.923 E33.59755
G1 X275.839 Y183.674 E33.66247
G1 X276.167 Y184.744 E33.69702
G1 X278.455 Y196.205 E34.05780
G1 X278.470 Y198.308 E34.12272
G1 X277.375 Y200.738 E34.20499
G1 X250.339 Y235.239 E35.55802
G1 X249.389 Y236.189 E35.59949
G1 X214.797 Y263.297 E36.95612
G1 X212.926 Y264.259 E37.02104
G1 X210.755 Y264.452 E37.08832
G1 X188.758 Y262.071 E37.77131
G1 X186.747 Y261.455 E37.83623
G1 X185.414 Y260.470 E37.88741
G1 X163.160 Y238.216 E38.85889
G1 X23.327 Y96.077 E45.01381
G1 X22.161 Y94.326 E45.07873
G1 X21.833 Y93.256 E45.11328
G1 X19.545 Y81.795 E45.47406
G1 X19.530 Y79.692 E45.53898
G1 X20.625 Y77.262 E45.62125
G1 X47.614 Y42.820 E46.97196
G1 F1200.000 E45.77196
G92 E0
G1 X171.247 Y157.096 F9000.000
G1 E1.20000 F1200.000
G1 X170.649 Y157.555 E1.22326 F3990.000
G1 X169.953 Y157.843 E1.24651
G1 X169.206 Y157.942 E1.26977
G1 X168.459 Y157.843 E1.29303
G1 X167.763 Y157.555 E1.31629
G1 X167.211 Y157.132 E1.33775
G1 X164.413 Y154.333 E1.45992
G1 X164.301 Y154.222 E1.46478
G1 X163.878 Y153.670 E1.48624
G1 X163.590 Y152.974 E1.50950
G1 X163.491 Y152.227 E1.53276
G1 X163.590 Y151.480 E1.55602
G1 X163.878 Y150.784 E1.57927
G1 X164.337 Y150.186 E1.60253
G1 X164.934 Y149.728 E1.62579
G1 X165.630 Y149.439 E1.64904
G1 X166.377 Y149.341 E1.67230
G1 X166.505 Y149.358 E1.67628
G1 X167.124 Y149.439 E1.69556 F3990.000
G1 X167.820 Y149.728 E1.71882
G1 X168.372 Y150.151 E1.74028
G1 X171.282 Y153.061 E1.86731
G1 X171.705 Y153.612 E1.88877
G1 X171.994 Y154.308 E1.91203
G1 X172.092 Y155.055 E1.93529
G1 X171.994 Y155.802 E1.95854
G1 X171.705 Y156.499 E1.98180
G1 X171.292 Y157.037 E2.00274
G1 X170.834 Y156.684 F9000.000
G1 X170.357 Y157.050 E2.02130 F2940.000
G1 X169.802 Y157.280 E2.03985
G1 X169.206 Y157.358 E2.05841
G1 X168.610 Y157.280 E2.07696
G1 X168.054 Y157.050 E2.09552
G1 X167.593 Y156.696 E2.11346
G1 X164.822 Y153.924 E2.23445
G1 X164.737 Y153.840 E2.23815
G1 X164.383 Y153.378 E2.25609
G1 X164.153 Y152.823 E2.27465
G1 X164.075 Y152.227 E2.29320
G1 X164.153 Y151.631 E2.31176
G1 X164.383 Y151.076 E2.33031
G1 X164.749 Y150.599 E2.34887
G1 X165.226 Y150.233 E2.36742
G1 X165.781 Y150.003 E2.38598
G1 X165.834 Y149.996 E2.38760
G1 X166.377 Y149.924 E2.40453 F2940.000
G1 X166.973 Y150.003 E2.42309
G1 X167.529 Y150.233 E2.44164
G1 X167.990 Y150.587 E2.45958
G1 X170.761 Y153.358 E2.58058
G1 X170.846 Y153.443 E2.58427
G1 X171.200 Y153.904 E2.60221
G1 X171.430 Y154.459 E2.62077
G1 X171.508 Y155.055 E2.63932
G1 X171.430 Y155.651 E2.65788
G1 X171.200 Y156.207 E2.67643
G1 X170.880 Y156.624 E2.69267
G1 F1200.000 E1.49267
G92 E0
G1 X165.674 Y149.522 F9000.000
G1 X173.037 Y215.071 F9000.000
G1 E1.20000 F1200.000
G1 X173.862 Y215.071 E1.22547 F3990.000
G1 X174.935 Y215.202 E1.25885 F3990.000
G1 X175.736 Y215.399 E1.28432
G1 X176.630 Y215.731 E1.31375
G1 X177.477 Y216.168 E1.34317
G1 X178.266 Y216.704 E1.37260
G1 X179.073 Y217.423 E1.40598
G1 X179.620 Y218.041 E1.43145
G1 X180.166 Y218.822 E1.46088
G1 X180.614 Y219.664 E1.49031
G1 X180.958 Y220.553 E1.51973
G1 X181.211 Y221.604 E1.55311
G1 X181.310 Y222.423 E1.57858
G1 X181.315 Y223.377 E1.60801
G1 X181.178 Y224.449 E1.64138
G1 X180.980 Y225.250 E1.66686
G1 X180.646 Y226.143 E1.69629
G1 X180.136 Y227.097 E1.72966
G1 X179.668 Y227.776 E1.75514
G1 X179.038 Y228.492 E1.78457
G1 X178.222 Y229.201 E1.81794
G1 X177.543 Y229.670 E1.84341
G1 X176.700 Y230.115 E1.87285
G1 X175.809 Y230.455 E1.90228
G1 X174.884 Y230.686 E1.93171
G1 X173.809 Y230.804 E1.96508
G1 X172.984 Y230.804 E1.99056
G1 X172.037 Y230.690 E2.01999
G1 X171.111 Y230.463 E2.04942
G1 X170.219 Y230.126 E2.07886
G1 X169.375 Y229.683 E2.10829
G1 X169.269 Y229.611 E2.11225
G1 X168.590 Y229.142 E2.13772
G1 X167.880 Y228.514 E2.16697
G1 X167.266 Y227.822 E2.19553
G1 X166.737 Y227.063 E2.22408
G1 X166.240 Y226.116 E2.25710
G1 X165.945 Y225.339 E2.28276
G1 X165.707 Y224.401 E2.31262
G1 X165.585 Y223.442 E2.34248
G1 X165.582 Y222.474 E2.37235
G1 X165.598 Y222.339 E2.37656
G1 X165.697 Y221.517 E2.40210
G1 X165.929 Y220.581 E2.43188
G1 X166.275 Y219.677 E2.46174
G1 X166.662 Y218.941 E2.48740
G1 X167.278 Y218.040 E2.52111
G1 X167.915 Y217.330 E2.55054
G1 X168.633 Y216.703 E2.57997
G1 X169.421 Y216.167 E2.60939
G1 X170.152 Y215.783 E2.63487
G1 X171.162 Y215.399 E2.66824
G1 X172.089 Y215.178 E2.69767
G1 X172.962 Y215.075 E2.72478
G1 X173.054 Y215.649 F9000.000
G1 X173.844 Y215.649 E2.74916 F2940.000
G1 X174.721 Y215.750 E2.77641
G1 X175.579 Y215.956 E2.80366
G1 X176.407 Y216.265 E2.83092
G1 X177.270 Y216.720 E2.86104
G1 X177.920 Y217.168 E2.88542
G1 X178.584 Y217.750 E2.91267
G1 X179.229 Y218.482 E2.94279
G1 X179.678 Y219.132 E2.96717
G1 X180.092 Y219.912 E2.99443
G1 X180.434 Y220.826 E3.02455
G1 X180.623 Y221.593 E3.04893
G1 X180.733 Y222.469 E3.07618
G1 X180.729 Y223.445 E3.10630
G1 X180.633 Y224.229 E3.13068
G1 X180.425 Y225.087 E3.15794
G1 X180.115 Y225.913 E3.18519
G1 X179.707 Y226.696 E3.21245
G1 X179.147 Y227.496 E3.24257
G1 X178.623 Y228.087 E3.26695
G1 X177.964 Y228.674 E3.29420
G1 X177.238 Y229.177 E3.32146
G1 X176.457 Y229.589 E3.34872
G1 X175.542 Y229.927 E3.37884
G1 X174.775 Y230.116 E3.40321
G1 X173.899 Y230.224 E3.43047
G1 X172.923 Y230.215 E3.46059
G1 X172.139 Y230.120 E3.48497
G1 X171.282 Y229.909 E3.51223
G1 X170.373 Y229.554 E3.54234
G1 X169.674 Y229.187 E3.56672
G1 X168.947 Y228.685 E3.59398
G1 X168.288 Y228.101 E3.62117
G1 X167.715 Y227.456 E3.64779
G1 X167.183 Y226.683 E3.67677
G1 X166.774 Y225.892 E3.70424
G1 X166.493 Y225.152 E3.72868
G1 X166.274 Y224.286 E3.75625
G1 X166.163 Y223.400 E3.78382
G1 X166.172 Y222.406 E3.81450
G1 X166.268 Y221.621 E3.83891
G1 X166.482 Y220.755 E3.86645
G1 X166.801 Y219.921 E3.89402
G1 X167.169 Y219.220 E3.91846
G1 X167.725 Y218.407 E3.94886
G1 X168.314 Y217.749 E3.97611
G1 X168.905 Y217.226 E4.00049
G1 X169.707 Y216.670 E4.03062
G1 X170.491 Y216.264 E4.05787
G1 X171.319 Y215.956 E4.08512
G1 X172.177 Y215.750 E4.11237
G1 X172.961 Y215.655 E4.13675
G1 X172.979 Y215.654 E4.13731 F2940.000
G1 X172.960 Y215.637 F9000.000
G1 F1200.000 E2.93731
G92 E0
G1 X204.491 Y250.799 F9000.000
G1 E1.20000 F1200.000
G1 X199.643 Y255.647 E1.41164 F3990.000
G1 X189.722 Y255.647 E1.71788
G1 X167.768 Y233.693 E2.67627
G1 X166.669 Y232.519 E2.72591
G1 X165.660 Y231.286 E2.77510
G1 X164.733 Y229.989 E2.82430
G1 X163.895 Y228.634 E2.87349
G1 X163.148 Y227.227 E2.92268
G1 X162.495 Y225.773 E2.97187
G1 X161.940 Y224.279 E3.02106
G1 X161.484 Y222.752 E3.07025
G1 X161.131 Y221.198 E3.11944
G1 X160.878 Y219.610 E3.16908
G1 X158.297 Y199.005 E3.81010
G1 X158.013 Y195.984 E3.90377
G1 X157.915 Y192.964 E3.99703
G1 X158.003 Y189.947 E4.09020
G1 X158.354 Y186.333 E4.20228
G1 X158.971 Y182.758 E4.31428
G1 X159.850 Y179.235 E4.42634
G1 X160.827 Y176.226 E4.52401
G1 X162.011 Y173.251 E4.62285
G1 X163.426 Y170.275 E4.72459
G1 X163.975 Y168.806 E4.77298
G1 X164.169 Y167.265 E4.82093
G1 X164.030 Y165.797 E4.86646
G1 X163.561 Y164.348 E4.91347
G1 X162.930 Y163.238 E4.95289
G1 X162.138 Y162.301 E4.99074
G1 X161.381 Y161.474 E5.02537
G1 X160.788 Y160.674 E5.05611
G1 X160.277 Y159.819 E5.08684
G1 X159.852 Y158.919 E5.11758
G1 X159.517 Y157.981 E5.14832
G1 X159.277 Y157.014 E5.17906
G1 X159.132 Y156.029 E5.20980
G1 X159.085 Y155.034 E5.24054
G1 X159.136 Y154.040 E5.27128
G1 X159.285 Y153.055 E5.30202
G1 X159.530 Y152.090 E5.33276
G1 X159.868 Y151.153 E5.36350
G1 X160.297 Y150.254 E5.39424
G1 X160.812 Y149.402 E5.42498
G1 X161.408 Y148.604 E5.45572
G1 X162.080 Y147.869 E5.48646
G1 X162.820 Y147.204 E5.51720
G1 X163.623 Y146.614 E5.54794
G1 X164.480 Y146.106 E5.57867
G1 X165.382 Y145.685 E5.60941
G1 X166.321 Y145.355 E5.64015
G1 X167.289 Y145.118 E5.67089
G1 X168.275 Y144.978 E5.70163
G1 X169.269 Y144.935 E5.73237
G1 X170.264 Y144.991 E5.76311
G1 X171.248 Y145.143 E5.79385
G1 X172.212 Y145.392 E5.82459
G1 X173.147 Y145.734 E5.85533
G1 X174.044 Y146.167 E5.88607
G1 X174.894 Y146.685 E5.91681
G1 X175.689 Y147.285 E5.94755
G1 X176.467 Y148.002 E5.98021
G1 X177.388 Y148.779 E6.01741
G1 X178.498 Y149.411 E6.05683
G1 X179.947 Y149.880 E6.10384
G1 X181.415 Y150.019 E6.14937
G1 X182.957 Y149.825 E6.19732
G1 X184.426 Y149.275 E6.24576
G1 X187.087 Y147.998 E6.33685
G1 X189.696 Y146.927 E6.42393
G1 X192.409 Y145.993 E6.51248
G1 X196.577 Y144.891 E6.64556
G1 X200.819 Y144.160 E6.77845
G1 X205.118 Y143.802 E6.91162
G1 X207.359 Y143.766 E6.98079
G1 X209.608 Y143.832 E7.05025
G1 X211.852 Y144.001 E7.11971
G1 X214.086 Y144.273 E7.18917
G1 X216.305 Y144.647 E7.25863
G1 X218.504 Y145.122 E7.32809
G1 X220.680 Y145.697 E7.39755
G1 X222.826 Y146.372 E7.46701
G1 X224.940 Y147.144 E7.53647
G1 X227.016 Y148.011 E7.60593
G1 X229.050 Y148.974 E7.67539
G1 X231.038 Y150.028 E7.74485
G1 X232.976 Y151.172 E7.81431
G1 X234.859 Y152.404 E7.88377
G1 X236.684 Y153.720 E7.95323
G1 X238.446 Y155.119 E8.02269
G1 X240.143 Y156.597 E8.09215
G1 X241.777 Y158.159 E8.16192
G1 X269.454 Y185.836 E9.37015
G1 X264.867 Y190.423 E9.57040
G1 X271.812 Y197.368 E9.87360
G1 X245.323 Y231.172 E11.19931
G1 X211.426 Y257.734 E12.52862
G1 X204.544 Y250.852 E12.82907
G1 X204.491 Y251.617 F9000.000
G1 X199.883 Y256.225 E13.03025 F2940.000
G1 X189.483 Y256.225 E13.35128
G1 X167.352 Y234.095 E14.31737
G1 X166.234 Y232.900 E14.36789
G1 X165.200 Y231.638 E14.41826
G1 X164.251 Y230.310 E14.46864
G1 X163.393 Y228.922 E14.51901
G1 X162.628 Y227.481 E14.56938
G1 X161.959 Y225.992 E14.61975
G1 X161.391 Y224.463 E14.67012
G1 X160.924 Y222.899 E14.72049
G1 X160.562 Y221.308 E14.77087
G1 X160.305 Y219.691 E14.82139
G1 X157.722 Y199.068 E15.46298
G1 X157.435 Y196.020 E15.55748
G1 X157.336 Y192.965 E15.65183
G1 X157.425 Y189.911 E15.74615
G1 X157.780 Y186.256 E15.85950
G1 X158.404 Y182.638 E15.97282
G1 X159.293 Y179.076 E16.08616
G1 X160.278 Y176.045 E16.18455
G1 X161.478 Y173.024 E16.28489
G1 X162.893 Y170.048 E16.38658
G1 X163.409 Y168.667 E16.43211
G1 X163.587 Y167.256 E16.47601
G1 X163.460 Y165.914 E16.51761
G1 X163.029 Y164.582 E16.56083
G1 X162.453 Y163.570 E16.59677
G1 X161.713 Y162.695 E16.63216
G1 X160.933 Y161.841 E16.66786
G1 X160.306 Y160.995 E16.70036
G1 X159.766 Y160.092 E16.73285
G1 X159.316 Y159.140 E16.76535
G1 X158.963 Y158.148 E16.79785
G1 X158.708 Y157.126 E16.83035
G1 X158.556 Y156.085 E16.86285
G1 X158.506 Y155.033 E16.89535
G1 X158.560 Y153.982 E16.92785
G1 X158.717 Y152.941 E16.96035
G1 X158.976 Y151.920 E16.99284
G1 X159.334 Y150.930 E17.02534
G1 X159.787 Y149.980 E17.05784
G1 X160.331 Y149.078 E17.09034
G1 X160.962 Y148.235 E17.12284
G1 X161.672 Y147.458 E17.15534
G1 X162.455 Y146.754 E17.18784
G1 X163.303 Y146.131 E17.22034
G1 X164.209 Y145.594 E17.25283
G1 X165.163 Y145.149 E17.28533
G1 X166.156 Y144.800 E17.31783
G1 X167.179 Y144.550 E17.35033
G1 X168.221 Y144.401 E17.38283
G1 X169.273 Y144.356 E17.41533
G1 X170.324 Y144.414 E17.44783
G1 X171.365 Y144.576 E17.48033
G1 X172.384 Y144.839 E17.51282
G1 X173.373 Y145.201 E17.54532
G1 X174.321 Y145.658 E17.57782
G1 X175.220 Y146.206 E17.61032
G1 X176.060 Y146.840 E17.64282
G1 X176.850 Y147.568 E17.67597
G1 X177.720 Y148.303 E17.71114
G1 X178.733 Y148.879 E17.74708
G1 X180.065 Y149.310 E17.79030
G1 X181.406 Y149.437 E17.83190
G1 X182.817 Y149.259 E17.87580
G1 X184.199 Y148.742 E17.92134
G1 X186.855 Y147.468 E18.01228
G1 X189.489 Y146.387 E18.10017
G1 X192.241 Y145.439 E18.19000
G1 X196.454 Y144.326 E18.32451
G1 X200.746 Y143.586 E18.45897
G1 X205.090 Y143.224 E18.59351
G1 X207.363 Y143.187 E18.66369
G1 X209.639 Y143.254 E18.73397
G1 X211.909 Y143.425 E18.80425
G1 X214.169 Y143.700 E18.87453
G1 X216.414 Y144.079 E18.94481
G1 X218.639 Y144.559 E19.01509
G1 X220.840 Y145.141 E19.08536
G1 X223.012 Y145.824 E19.15564
G1 X225.151 Y146.605 E19.22592
G1 X227.251 Y147.483 E19.29620
G1 X229.309 Y148.456 E19.36648
G1 X231.321 Y149.523 E19.43676
G1 X233.281 Y150.681 E19.50703
G1 X235.187 Y151.927 E19.57731
G1 X237.033 Y153.259 E19.64759
G1 X238.816 Y154.674 E19.71787
G1 X240.533 Y156.170 E19.78815
G1 X242.182 Y157.745 E19.85853
G1 X270.272 Y185.836 E21.08482
G1 X265.685 Y190.423 E21.28507
G1 X272.584 Y197.321 E21.58623
G1 X245.735 Y231.584 E22.92993
G1 X211.380 Y258.506 E24.27723
G1 X204.544 Y251.670 E24.57565
G1 X204.137 Y251.263 F9000.000
G1 X204.123 Y250.602 F9000.000
G1 X180.606 Y227.086 E25.60225 F3780.000
G1 X180.280 Y227.579 E25.62051
G1 X203.713 Y251.012 E26.64346
G1 X203.303 Y251.422 E26.66136
G1 X179.942 Y228.061 E27.68118
G1 X179.563 Y228.501 E27.69912
G1 X202.893 Y251.832 E28.71761
G1 X202.483 Y252.241 E28.73550
G1 X179.160 Y228.918 E29.75368
G1 X178.726 Y229.304 E29.77160
G1 X202.074 Y252.651 E30.79081
G1 X201.664 Y253.061 E30.80870
G1 X178.260 Y229.658 E31.83037
G1 X177.777 Y229.994 E31.84855
G1 X201.254 Y253.471 E32.87343
G1 X200.844 Y253.881 E32.89132
G1 X177.243 Y230.280 E33.92161
G1 X176.689 Y230.545 E33.94059
G1 X200.434 Y254.291 E34.97720
G1 X200.024 Y254.700 E34.99509
G1 X176.089 Y230.765 E36.03997
G1 X175.460 Y230.955 E36.06027
G1 X199.615 Y255.110 E37.11476
G1 X198.932 Y255.247 E37.13625
G1 X174.785 Y231.100 E38.19038
G1 X174.055 Y231.190 E38.21308
G1 X198.112 Y255.247 E39.26328
G1 X197.293 Y255.247 E39.28858
G1 X173.248 Y231.203 E40.33824
G1 X172.357 Y231.131 E40.36583
G1 X196.473 Y255.247 E41.41860
G1 X195.654 Y255.247 E41.44390
G1 X171.336 Y230.929 E42.50550
G1 X170.091 Y230.504 F9000.000
G1 X194.834 Y255.247 E43.58565 F3780.000
G1 X194.014 Y255.247 E43.61096
G1 X162.064 Y223.297 E45.00575
G1 X161.763 Y222.176 E45.04155
G1 X165.885 Y226.298 E45.22148
G1 X165.461 Y225.055 F9000.000
G1 X161.522 Y221.116 E45.39343 F3780.000
G1 X161.367 Y220.141 E45.42389
G1 X165.257 Y224.032 E45.59372
G1 X165.185 Y223.139 E45.62135
G1 X161.227 Y219.182 E45.79412
G1 X161.110 Y218.245 E45.82327
G1 X165.196 Y222.331 E46.00168
G1 X165.285 Y221.600 E46.02441
G1 X160.992 Y217.308 E46.21180
G1 X160.875 Y216.371 E46.24095
G1 X165.432 Y220.927 E46.43988
G1 X165.613 Y220.289 E46.46036
G1 X160.758 Y215.434 E46.67233
G1 X160.640 Y214.497 E46.70148
G1 X165.840 Y219.697 E46.92849
G1 X166.105 Y219.142 E46.94746
G1 X160.523 Y213.560 E47.19116
