; generated by Slic3r 1.1.7 on 2015-04-23 at 17:20:59

; perimeters extrusion width = 0.50mm
; infill extrusion width = 0.58mm
; solid infill extrusion width = 0.60mm
; top infill extrusion width = 0.45mm

G21 ; set units to millimeters

M301 P34 I4 D113     ; set PID nozzle
M304 P162 I17 D378 ; set PID Bed


M104 S245                 ; set extruder temp for hex_hot_end
M140 S110                 ; set bed temp for PEI (reminder ~G1 Z2 ~ M140 S(@-10 degree change) ;if -m is present in file name)

G28                            ; home
G1 Z5 F300                ; move bed down 5mm
M84                            ; disable steppers
G4 S300                     ; wait 5 mins to preheat

G28                            ; home

G90 ; use absolute coordinates
G92 E0
M82 ; use absolute distances for extrusion
M204 S2000
G1 F1200.000 E-1.20000
G92 E0
G1 Z0.350 F9000.000
G1 X100.649 Y102.309 F9000.000
G1 E1.20000 F1200.000
G1 X191.518 Y12.914 E5.13480 F2520.000
G1 X193.346 Y11.672 E5.20303
G1 X194.631 Y11.265 E5.24462
G1 X206.092 Y8.978 E5.60540
G1 X208.302 Y8.941 E5.67363
G1 X211.095 Y10.170 E5.76781
G1 X245.596 Y37.205 E7.12083 F2520.000
G1 X246.644 Y38.254 E7.16661
G1 X273.752 Y72.847 E8.52324
G1 X274.781 Y74.803 E8.59147
G1 X275.027 Y77.307 E8.66913
G1 X272.647 Y99.304 E9.35212
G1 X272.018 Y101.423 E9.42035
G1 X270.879 Y102.995 E9.48029
G1 X248.622 Y125.252 E10.45191
G1 X106.482 Y265.086 E16.60683
G1 X104.654 Y266.328 E16.67506
G1 X103.370 Y266.735 E16.71665
G1 X91.908 Y269.022 E17.07744
G1 X89.698 Y269.059 E17.14567
G1 X86.905 Y267.830 E17.23984
G1 X52.404 Y240.795 E18.59287
G1 X51.356 Y239.746 E18.63865
G1 X24.248 Y205.153 E19.99528
G1 X23.219 Y203.197 E20.06351
G1 X22.973 Y200.693 E20.14117
G1 X25.353 Y178.696 E20.82416
G1 X25.982 Y176.577 E20.89239
G1 X27.121 Y175.005 E20.95232
G1 X49.378 Y152.748 E21.92395
G1 X100.595 Y102.361 E24.14176
G1 X101.055 Y102.721 F9000.000
G1 X191.923 Y13.327 E28.07655 F2520.000
G1 X193.674 Y12.161 E28.14147
G1 X194.744 Y11.833 E28.17602
G1 X206.205 Y9.545 E28.53680
G1 X208.308 Y9.530 E28.60172
G1 X210.738 Y10.625 E28.68399
G1 X245.239 Y37.661 E30.03702 F2520.000
G1 X246.189 Y38.611 E30.07849
G1 X273.297 Y73.203 E31.43512
G1 X274.259 Y75.074 E31.50004
G1 X274.452 Y77.245 E31.56732
G1 X272.071 Y99.242 E32.25031
G1 X271.455 Y101.253 E32.31523
G1 X270.470 Y102.586 E32.36641
G1 X248.216 Y124.840 E33.33789
G1 X106.077 Y264.673 E39.49281
G1 X104.326 Y265.839 E39.55773
G1 X103.256 Y266.167 E39.59228
G1 X91.795 Y268.455 E39.95306
G1 X89.692 Y268.470 E40.01798
G1 X87.262 Y267.375 E40.10025
G1 X52.761 Y240.339 E41.45327
G1 X51.811 Y239.389 E41.49475
G1 X24.703 Y204.797 E42.85138
G1 X23.741 Y202.926 E42.91630
G1 X23.548 Y200.756 E42.98357
G1 X25.929 Y178.758 E43.66656
G1 X26.545 Y176.747 E43.73148
G1 X27.530 Y175.414 E43.78267
G1 X49.784 Y153.160 E44.75415
G1 X101.001 Y102.774 E46.97196
G1 F1200.000 E45.77196
G92 E0
G1 X133.691 Y161.994 F9000.000
G1 E1.20000 F1200.000
G1 X132.944 Y162.092 E1.22326 F3990.000
G1 X132.198 Y161.994 E1.24650
G1 X131.502 Y161.705 E1.26977
G1 X130.904 Y161.246 E1.29303
G1 X130.445 Y160.649 E1.31628
G1 X130.157 Y159.953 E1.33954
G1 X130.058 Y159.206 E1.36280
G1 X130.157 Y158.459 E1.38605
G1 X130.445 Y157.763 E1.40931
G1 X130.868 Y157.211 E1.43078
G1 X133.778 Y154.301 E1.55780
G1 X134.330 Y153.878 E1.57927
G1 X135.026 Y153.589 E1.60254
G1 X135.773 Y153.491 E1.62578
G1 X135.900 Y153.508 E1.62975
G1 X136.520 Y153.590 E1.64904 F3990.000
G1 X137.216 Y153.878 E1.67230
G1 X137.814 Y154.337 E1.69555
G1 X138.272 Y154.934 E1.71881
G1 X138.561 Y155.630 E1.74207
G1 X138.659 Y156.377 E1.76533
G1 X138.561 Y157.124 E1.78858
G1 X138.272 Y157.820 E1.81184
G1 X137.849 Y158.372 E1.83331
G1 X134.939 Y161.282 E1.96034
G1 X134.388 Y161.705 E1.98179
G1 X133.761 Y161.965 E2.00274
G1 X133.540 Y161.430 F9000.000
G1 X132.944 Y161.508 E2.02130 F2940.000
G1 X132.349 Y161.430 E2.03985
G1 X131.793 Y161.200 E2.05841
G1 X131.316 Y160.834 E2.07696
G1 X130.950 Y160.357 E2.09552
G1 X130.720 Y159.802 E2.11407
G1 X130.642 Y159.206 E2.13263
G1 X130.720 Y158.610 E2.15118
G1 X130.950 Y158.055 E2.16974
G1 X131.304 Y157.593 E2.18768
G1 X134.160 Y154.737 E2.31237
G1 X134.622 Y154.383 E2.33031
G1 X135.177 Y154.153 E2.34887
G1 X135.229 Y154.146 E2.35049
G1 X135.773 Y154.075 E2.36742 F2940.000
G1 X136.369 Y154.153 E2.38597
G1 X136.924 Y154.383 E2.40453
G1 X137.401 Y154.749 E2.42308
G1 X137.767 Y155.226 E2.44164
G1 X137.997 Y155.781 E2.46019
G1 X138.076 Y156.377 E2.47875
G1 X137.997 Y156.973 E2.49730
G1 X137.767 Y157.529 E2.51586
G1 X137.413 Y157.990 E2.53380
G1 X134.557 Y160.846 E2.65849
G1 X134.096 Y161.200 E2.67643
G1 X133.610 Y161.401 E2.69267
G1 F1200.000 E1.49267
G92 E0
G1 X135.212 Y153.647 F9000.000
G1 X72.929 Y163.037 F9000.000
G1 E1.20000 F1200.000
G1 X72.929 Y163.862 E1.22547 F3990.000
G1 X72.822 Y164.809 E1.25490
G1 X72.601 Y165.736 E1.28433
G1 X72.269 Y166.630 E1.31375
G1 X71.832 Y167.477 E1.34318
G1 X71.296 Y168.266 E1.37260
G1 X70.577 Y169.073 E1.40598
G1 X69.959 Y169.620 E1.43145
G1 X69.178 Y170.166 E1.46088
G1 X68.337 Y170.614 E1.49031
G1 X67.447 Y170.958 E1.51974
G1 X66.396 Y171.211 E1.55311
G1 X65.577 Y171.310 E1.57858
G1 X64.623 Y171.315 E1.60802
G1 X63.676 Y171.205 E1.63745
G1 X62.750 Y170.980 E1.66688
G1 X61.742 Y170.590 E1.70025
G1 X61.011 Y170.206 E1.72572
G1 X60.224 Y169.668 E1.75515
G1 X59.508 Y169.038 E1.78459
G1 X58.874 Y168.326 E1.81402
G1 X58.268 Y167.431 E1.84739
G1 X57.885 Y166.700 E1.87286
G1 X57.545 Y165.809 E1.90229
G1 X57.314 Y164.884 E1.93173
G1 X57.198 Y163.938 E1.96116
G1 X57.196 Y162.984 E1.99059
G1 X57.210 Y162.857 E1.99455
G1 X57.310 Y162.037 E2.02003
G1 X57.537 Y161.111 E2.04946
G1 X57.874 Y160.219 E2.07889
G1 X58.317 Y159.375 E2.10833
G1 X58.389 Y159.269 E2.11229
G1 X58.858 Y158.590 E2.13776
G1 X59.487 Y157.880 E2.16701
G1 X60.178 Y157.266 E2.19556
G1 X61.032 Y156.679 E2.22755
G1 X61.884 Y156.240 E2.25714
G1 X62.661 Y155.945 E2.28280
G1 X63.599 Y155.707 E2.31266
G1 X64.558 Y155.585 E2.34252
G1 X65.526 Y155.582 E2.37239
G1 X65.661 Y155.598 E2.37660
G1 X66.483 Y155.697 E2.40214 F3990.000
G1 X67.287 Y155.896 E2.42771
G1 X67.419 Y155.929 E2.43192
G1 X68.323 Y156.275 E2.46178
G1 X69.177 Y156.730 E2.49165
G1 X69.858 Y157.200 E2.51721
G1 X70.670 Y157.915 E2.55058
G1 X71.297 Y158.633 E2.58001
G1 X71.766 Y159.312 E2.60549
G1 X72.270 Y160.268 E2.63886
G1 X72.601 Y161.162 E2.66829
G1 X72.799 Y161.963 E2.69376
G1 X72.925 Y162.962 E2.72482
G1 X72.351 Y163.054 F9000.000
G1 X72.351 Y163.844 E2.74920 F2940.000
G1 X72.250 Y164.721 E2.77645
G1 X72.044 Y165.579 E2.80371
G1 X71.735 Y166.407 E2.83096
G1 X71.329 Y167.191 E2.85821
G1 X70.832 Y167.920 E2.88546
G1 X70.183 Y168.649 E2.91559
G1 X69.592 Y169.173 E2.93996
G1 X68.868 Y169.678 E2.96722
G1 X68.088 Y170.092 E2.99447
G1 X67.264 Y170.408 E3.02173
G1 X66.315 Y170.638 E3.05185
G1 X65.531 Y170.733 E3.07623
G1 X64.648 Y170.737 E3.10348
G1 X63.771 Y170.633 E3.13074
G1 X62.913 Y170.425 E3.15799
G1 X62.003 Y170.074 E3.18811
G1 X61.304 Y169.707 E3.21249
G1 X60.576 Y169.207 E3.23975
G1 X59.913 Y168.623 E3.26700
G1 X59.326 Y167.964 E3.29426
G1 X58.778 Y167.157 E3.32438
G1 X58.411 Y166.457 E3.34876
G1 X58.096 Y165.632 E3.37601
G1 X57.884 Y164.775 E3.40327
G1 X57.776 Y163.899 E3.43053
G1 X57.785 Y162.923 E3.46065
G1 X57.880 Y162.139 E3.48503
G1 X58.091 Y161.282 E3.51228
G1 X58.403 Y160.456 E3.53954
G1 X58.813 Y159.674 E3.56680
G1 X59.315 Y158.947 E3.59405
G1 X59.956 Y158.236 E3.62360
G1 X60.544 Y157.715 E3.64785
G1 X61.252 Y157.223 E3.67447
G1 X62.108 Y156.774 E3.70430
G1 X62.848 Y156.493 E3.72875
G1 X63.714 Y156.274 E3.75631
G1 X64.701 Y156.161 E3.78700
G1 X65.493 Y156.161 E3.81144 F2940.000
G1 X66.379 Y156.268 E3.83897
G1 X67.245 Y156.482 E3.86651
G1 X67.985 Y156.763 E3.89095
G1 X68.868 Y157.219 E3.92164
G1 X69.593 Y157.725 E3.94892
G1 X70.184 Y158.249 E3.97330
G1 X70.832 Y158.978 E4.00342
G1 X71.330 Y159.707 E4.03068
G1 X71.697 Y160.406 E4.05505
G1 X72.044 Y161.319 E4.08518
G1 X72.250 Y162.177 E4.11243
G1 X72.346 Y162.979 E4.13737
G1 F1200.000 E2.93737
G92 E0
G1 X64.554 Y155.683 F9000.000
G1 X37.201 Y194.491 F9000.000
G1 E1.20000 F1200.000
G1 X32.353 Y189.643 E1.41164 F3990.000
G1 X32.353 Y179.722 E1.71788
G1 X54.307 Y157.768 E2.67627
G1 X55.481 Y156.669 E2.72591
G1 X56.714 Y155.660 E2.77510
G1 X58.011 Y154.733 E2.82430
G1 X59.366 Y153.895 E2.87348
G1 X60.773 Y153.148 E2.92268
G1 X62.227 Y152.495 E2.97187
G1 X63.721 Y151.940 E3.02106
G1 X65.248 Y151.484 E3.07025
G1 X66.802 Y151.131 E3.11945
G1 X68.390 Y150.878 E3.16908
G1 X88.995 Y148.297 E3.81010
G1 X92.016 Y148.013 E3.90377
G1 X95.036 Y147.915 E3.99703
G1 X98.053 Y148.003 E4.09019
G1 X101.667 Y148.354 E4.20228
G1 X105.242 Y148.971 E4.31428
G1 X108.765 Y149.850 E4.42634
G1 X111.774 Y150.827 E4.52401
G1 X114.749 Y152.011 E4.62285
G1 X117.726 Y153.426 E4.72459
G1 X119.194 Y153.975 E4.77297
G1 X120.735 Y154.169 E4.82093
G1 X122.203 Y154.030 E4.86646
G1 X123.652 Y153.561 E4.91347
G1 X124.762 Y152.930 E4.95289
G1 X125.699 Y152.138 E4.99074
G1 X126.526 Y151.381 E5.02536
G1 X127.326 Y150.788 E5.05610
G1 X128.181 Y150.277 E5.08684
G1 X129.081 Y149.852 E5.11758
G1 X130.020 Y149.517 E5.14832
G1 X130.986 Y149.277 E5.17906
G1 X131.971 Y149.132 E5.20980
G1 X132.966 Y149.085 E5.24054
G1 X133.960 Y149.136 E5.27128
G1 X134.945 Y149.285 E5.30202
G1 X135.910 Y149.530 E5.33276
G1 X136.847 Y149.868 E5.36350
G1 X137.746 Y150.297 E5.39424
G1 X138.598 Y150.812 E5.42497
G1 X139.396 Y151.408 E5.45572
G1 X140.131 Y152.080 E5.48646
G1 X140.796 Y152.820 E5.51719
G1 X141.386 Y153.623 E5.54793
G1 X141.894 Y154.480 E5.57868
G1 X142.315 Y155.382 E5.60941
G1 X142.645 Y156.321 E5.64015
G1 X142.882 Y157.289 E5.67089
G1 X143.022 Y158.275 E5.70163
G1 X143.065 Y159.269 E5.73237
G1 X143.009 Y160.264 E5.76311
G1 X142.857 Y161.248 E5.79385
G1 X142.608 Y162.212 E5.82459
G1 X142.266 Y163.147 E5.85533
G1 X141.833 Y164.044 E5.88607
G1 X141.315 Y164.894 E5.91681
G1 X140.715 Y165.689 E5.94755
G1 X139.998 Y166.468 E5.98021
G1 X139.221 Y167.388 E6.01741
G1 X138.589 Y168.498 E6.05683
G1 X138.120 Y169.947 E6.10384
G1 X137.981 Y171.415 E6.14937
G1 X138.175 Y172.957 E6.19732
G1 X138.725 Y174.426 E6.24576
G1 X140.002 Y177.087 E6.33685
G1 X141.073 Y179.696 E6.42393
G1 X142.007 Y182.409 E6.51248
G1 X143.109 Y186.577 E6.64556
G1 X143.840 Y190.819 E6.77845
G1 X144.198 Y195.118 E6.91161
G1 X144.234 Y197.359 E6.98079
G1 X144.168 Y199.608 E7.05025
G1 X143.999 Y201.852 E7.11971
G1 X143.727 Y204.086 E7.18917
G1 X143.353 Y206.305 E7.25863
G1 X142.878 Y208.504 E7.32809
G1 X142.303 Y210.680 E7.39755
G1 X141.628 Y212.826 E7.46701
G1 X140.856 Y214.940 E7.53647
G1 X139.989 Y217.016 E7.60593
G1 X139.026 Y219.050 E7.67539
G1 X137.972 Y221.038 E7.74485
G1 X136.828 Y222.976 E7.81431
G1 X135.596 Y224.859 E7.88377
G1 X134.280 Y226.684 E7.95323
G1 X132.881 Y228.446 E8.02269
G1 X131.403 Y230.143 E8.09215
G1 X129.841 Y231.777 E8.16192
G1 X102.164 Y259.454 E9.37015
G1 X97.577 Y254.867 E9.57040
G1 X90.632 Y261.812 E9.87360
G1 X56.828 Y235.323 E11.19931
G1 X30.266 Y201.427 E12.52862
G1 X37.148 Y194.544 E12.82907
G1 X36.383 Y194.491 F9000.000
G1 X31.775 Y189.883 E13.03025 F2940.000
G1 X31.775 Y179.483 E13.35128
G1 X53.905 Y157.352 E14.31737
G1 X55.100 Y156.234 E14.36789
G1 X56.362 Y155.200 E14.41826
G1 X57.706 Y154.241 E14.46922
G1 X59.078 Y153.393 E14.51901
G1 X60.519 Y152.628 E14.56938
G1 X62.008 Y151.959 E14.61975
G1 X63.537 Y151.391 E14.67012
G1 X65.101 Y150.924 E14.72049
G1 X66.692 Y150.562 E14.77087
G1 X68.309 Y150.305 E14.82139
G1 X88.932 Y147.722 E15.46298
G1 X91.980 Y147.435 E15.55748
G1 X95.035 Y147.336 E15.65183
G1 X98.089 Y147.425 E15.74615
G1 X101.744 Y147.780 E15.85950
G1 X105.362 Y148.404 E15.97282
G1 X108.924 Y149.293 E16.08616
G1 X111.955 Y150.278 E16.18455
G1 X114.976 Y151.478 E16.28488
G1 X117.952 Y152.893 E16.38658
G1 X119.333 Y153.409 E16.43211
G1 X120.744 Y153.587 E16.47601
G1 X122.086 Y153.460 E16.51760
G1 X123.418 Y153.029 E16.56083
G1 X124.430 Y152.453 E16.59677
G1 X125.305 Y151.713 E16.63216
G1 X126.159 Y150.933 E16.66785
G1 X127.005 Y150.306 E16.70035
G1 X127.919 Y149.760 E16.73323
G1 X128.860 Y149.316 E16.76535
G1 X129.852 Y148.963 E16.79785
G1 X130.874 Y148.708 E16.83035
G1 X131.915 Y148.556 E16.86285
G1 X132.967 Y148.506 E16.89534
G1 X134.018 Y148.560 E16.92784
G1 X135.059 Y148.717 E16.96034
G1 X136.080 Y148.976 E16.99284
G1 X137.070 Y149.334 E17.02534
G1 X138.020 Y149.787 E17.05784
G1 X138.922 Y150.331 E17.09034
G1 X139.765 Y150.962 E17.12283
G1 X140.542 Y151.672 E17.15533
G1 X141.246 Y152.455 E17.18783
G1 X141.869 Y153.303 E17.22033
G1 X142.406 Y154.209 E17.25283
G1 X142.851 Y155.163 E17.28533
G1 X143.200 Y156.156 E17.31783
G1 X143.450 Y157.179 E17.35033
G1 X143.599 Y158.221 E17.38283
G1 X143.644 Y159.273 E17.41532
G1 X143.586 Y160.324 E17.44782
G1 X143.424 Y161.365 E17.48032
G1 X143.161 Y162.384 E17.51282
G1 X142.799 Y163.373 E17.54532
G1 X142.342 Y164.321 E17.57782
G1 X141.794 Y165.220 E17.61032
G1 X141.160 Y166.061 E17.64281
G1 X140.432 Y166.850 E17.67597
G1 X139.697 Y167.721 E17.71113
G1 X139.121 Y168.733 E17.74708
G1 X138.690 Y170.065 E17.79030
G1 X138.563 Y171.406 E17.83190
G1 X138.741 Y172.817 E17.87579
G1 X139.258 Y174.199 E17.92134
G1 X140.532 Y176.855 E18.01228
G1 X141.613 Y179.489 E18.10017
G1 X142.561 Y182.241 E18.18999
G1 X143.674 Y186.454 E18.32451
G1 X144.414 Y190.746 E18.45896
G1 X144.776 Y195.090 E18.59351
G1 X144.813 Y197.363 E18.66369
G1 X144.746 Y199.639 E18.73397
G1 X144.575 Y201.909 E18.80425
G1 X144.300 Y204.169 E18.87453
G1 X143.921 Y206.414 E18.94480
G1 X143.441 Y208.639 E19.01508
G1 X142.859 Y210.840 E19.08536
G1 X142.176 Y213.012 E19.15564
G1 X141.395 Y215.151 E19.22592
G1 X140.517 Y217.251 E19.29620
G1 X139.544 Y219.310 E19.36647
G1 X138.477 Y221.321 E19.43675
G1 X137.319 Y223.281 E19.50703
G1 X136.073 Y225.187 E19.57731
G1 X134.741 Y227.033 E19.64759
G1 X133.326 Y228.816 E19.71787
G1 X131.830 Y230.533 E19.78814
G1 X130.104 Y232.333 E19.86514
G1 X102.164 Y260.272 E21.08482
G1 X97.577 Y255.685 E21.28506
G1 X90.679 Y262.584 E21.58623
G1 X56.416 Y235.735 E22.92993
G1 X29.494 Y201.380 E24.27723
G1 X36.330 Y194.544 E24.57564
G1 X36.737 Y194.137 F9000.000
G1 F1200.000 E23.37564
G92 E0
G1 X30.864 Y201.394 F9000.000
G1 E1.20000 F1200.000
G1 X90.675 Y261.205 E3.81104 F3780.000
G1 X91.084 Y260.796 E3.82891
G1 X31.273 Y200.984 E6.43994
G1 X31.682 Y200.575 E6.45781
G1 X91.493 Y260.386 E9.06885
G1 X91.903 Y259.977 E9.08672
G1 X32.091 Y200.166 E11.69775
G1 X32.501 Y199.757 E11.71562
G1 X92.312 Y259.568 E14.32666
G1 X92.721 Y259.158 E14.34453
G1 X32.910 Y199.347 E16.95556
G1 X33.319 Y198.938 E16.97343
G1 X93.130 Y258.749 E19.58447
G1 X93.540 Y258.340 E19.60234
G1 X33.729 Y198.529 E22.21337
G1 X34.138 Y198.119 E22.23124
G1 X93.949 Y257.931 E24.84228
G1 X94.358 Y257.521 E24.86015
G1 X34.547 Y197.710 E27.47118
G1 X34.956 Y197.301 E27.48905
G1 X94.768 Y257.112 E30.10009
G1 X95.177 Y256.703 E30.11796
G1 X35.366 Y196.891 E32.72899
G1 X35.775 Y196.482 E32.74686
G1 X95.586 Y256.293 E35.35790
G1 X95.996 Y255.884 E35.37577
G1 X36.184 Y196.073 E37.98680
G1 X36.594 Y195.664 E38.00467
G1 X96.405 Y255.475 E40.61571
G1 X96.814 Y255.065 E40.63357
G1 X37.003 Y195.254 E43.24461
G1 X37.412 Y194.845 E43.26248
G1 X97.223 Y254.656 E45.87352
G1 F1200.000 E44.67352
G92 E0
G1 X125.948 Y235.499 F9000.000
G1 X102.206 Y258.820 F9000.000
G1 E1.20000 F1200.000
G1 X32.753 Y189.367 E4.23195 F3780.000
G1 X32.753 Y188.548 E4.25721
G1 X102.615 Y258.410 E7.30703
G1 X103.024 Y258.001 E7.32490
G1 X32.753 Y187.730 E10.39258
G1 X32.753 Y186.911 E10.41785
G1 X103.434 Y257.592 E13.50339
G1 X103.843 Y257.183 E13.52126
G1 X32.753 Y186.092 E16.62468
G1 X32.753 Y185.274 E16.64995
G1 X104.252 Y256.773 E19.77123
G1 X104.661 Y256.364 E19.78910
G1 X32.753 Y184.455 E22.92825
G1 X32.753 Y183.637 E22.95352
G1 X105.071 Y255.955 E26.11054
G1 X105.480 Y255.545 E26.12840
G1 X32.753 Y182.818 E29.30329
G1 X32.753 Y182.000 E29.32856
G1 X105.889 Y255.136 E32.52131
G1 X106.299 Y254.727 E32.53918
G1 X32.753 Y181.181 E35.74980
G1 X32.753 Y180.362 E35.77507
G1 X106.708 Y254.318 E39.00356
G1 X107.117 Y253.908 E39.02143
G1 X32.939 Y179.730 E42.25966
G1 X33.348 Y179.321 E42.27753
