; generated by Slic3r 1.1.7 on 2015-06-24 at 15:06:49

; perimeters extrusion width = 0.50mm
; infill extrusion width = 0.58mm
; solid infill extrusion width = 0.60mm
; top infill extrusion width = 0.45mm

G21 ; set units to millimeters
G21                                      ; metric values
G90                                      ; absolute positioning
M82                                      ; set extruder to absolute mode
M107                                    ; start with the fan off
G92 E0                                 ; set extruder position to 0
M140 S110                           ; get bed heating up
G28                                      ; home all
M109 S150                           ; set to cleaning temp and wait
G1 Z150 E-30 F75                ; suck up XXmm of filament
M109 S170                           ; heat up rest of way
G1 X45 Y174 F11520           ; move behind scraper
G1 Z0  F1200                       ; CRITICAL: set Z to height of top of scraper
G1 X45 Y174 Z-.5 F4000      ; wiping ; plunge into wipe pad
G1 X55 Y172 Z-.5 F4000      ; wiping
G1 X45 Y174 Z0 F4000        ; wiping
G1 X55 Y172 F4000             ; wiping
G1 X45 Y174 F4000             ; wiping
G1 X55 Y172 F4000             ; wiping
G1 X45 Y174 F4000             ; wiping
G1 X55 Y172 F4000             ; wiping
G1 X60 Y174 F4000             ; wiping
G1 X80 Y172 F4000             ; wiping
G1 X60 Y174 F4000             ; wiping
G1 X80 Y172 F4000             ; wiping
G1 X60 Y174 F4000             ; wiping
G1 X90 Y172 F4000             ; wiping
G1 X80 Y174 F4000             ; wiping
G1 X100 Y172 F4000           ; wiping
G1 X80 Y174 F4000             ; wiping
G1 X100 Y172 F4000           ; wiping
G1 X80 Y174 F4000             ; wiping
G1 X100 Y172 F4000           ; wiping
G1 X110 Y174 F4000           ; wiping
G1 X100 Y172 F4000           ; wiping
G1 X110 Y174 F4000           ; wiping
G1 X100 Y172 F4000           ; wiping
G1 X110 Y174 F4000           ; wiping
G1 X115 Y172 Z-0.5 F1000  ; wipe slower and bury noz in cleanish area
G1 Z10                                 ; raise z
G28 X0 Y0                            ; home x and y
M109 S170                           ; set to probing temp
M204 S300                           ; set accel for probing
G29                                      ; Probe
M204 S2000                         ; set accel back to normal
G1 X5 Y15 Z10 F5000          ; get out the way
M400                                    ; clear buffer
G4 S1                                   ; pause
M109 S250                           ; set extruder temp and wait
G4 S25                                 ; wait for bed to temp up
G1 Z2 E0 F75                       ; extrude filament back into nozzle
M140 S110                           ; get bed temping up during first layer
G90 ; use absolute coordinates
G92 E0
M82 ; use absolute distances for extrusion
M204 S2000
G1 F600.000 E-1.00000
G92 E0
G1 Z0.350 F10500.000
G1 X22.301 Y15.401 F10500.000
G1 E1.00000 F600.000
G1 X24.039 Y14.012 E1.07333 F1500.000
G1 X27.000 Y13.264 E1.17400
G1 X127.000 Y13.264 E4.47038
G1 X129.189 Y13.661 E4.54371
G1 X131.099 Y14.801 E4.61704 F1500.000
G1 X132.488 Y16.539 E4.69037
G1 X133.236 Y19.500 E4.79104
G1 X133.182 Y61.314 E6.16938
G1 X133.046 Y62.349 E6.20381
G1 X132.658 Y63.839 E6.25455
G1 X117.300 Y102.472 E7.62498
G1 X116.517 Y104.343 E7.69183
G1 X104.350 Y128.620 E8.58699
G1 X103.446 Y130.129 E8.64497
G1 X102.385 Y131.532 E8.70295
G1 X101.178 Y132.812 E8.76094
G1 X99.840 Y133.953 E8.81892
G1 X98.988 Y134.560 E8.85339
G1 X98.386 Y134.943 E8.87692
G1 X96.834 Y135.770 E8.93490
G1 X95.460 Y136.339 E8.98392
G1 X78.731 Y142.196 E9.56817
G1 X78.105 Y142.359 E9.58951
G1 X77.081 Y142.567 E9.62395
G1 X76.355 Y142.659 E9.64807
G1 X75.398 Y142.723 E9.67970
G1 X74.623 Y142.724 E9.70522
G1 X72.940 Y142.571 E9.76095
G1 X71.289 Y142.203 E9.81671
G1 X54.480 Y136.242 E10.40460
G1 X52.736 Y135.420 E10.46817
G1 X51.101 Y134.396 E10.53174
G1 X50.191 Y133.698 E10.56955
G1 X49.599 Y133.187 E10.59534
G1 X48.251 Y131.807 E10.65891
G1 X47.054 Y130.242 E10.72385
G1 X46.092 Y128.620 E10.78605
G1 X45.438 Y127.204 E10.83744
G1 X36.867 Y105.770 E11.59840
G1 X21.289 Y63.701 E13.07718
G1 X20.954 Y62.349 E13.12307
G1 X20.822 Y61.350 E13.15630
G1 X20.764 Y60.500 E13.18438
G1 X20.764 Y19.500 E14.53589
G1 X21.161 Y17.311 E14.60922
G1 X22.263 Y15.465 E14.68008
G1 X22.847 Y15.749 F10500.000
G1 X22.912 Y15.647 E14.68406 F1500.000
G1 X24.622 Y14.410 E14.75363
G1 X27.000 Y13.882 E14.83392
G1 X127.000 Y13.882 E18.13029
G1 X129.073 Y14.279 E18.19987
G1 X130.853 Y15.412 E18.26944 F1500.000
G1 X132.090 Y17.122 E18.33901
G1 X132.618 Y19.500 E18.41929
G1 X132.570 Y61.233 E19.79498
G1 X132.433 Y62.269 E19.82940
G1 X132.084 Y63.611 E19.87512
G1 X116.727 Y102.239 E21.24537
G1 X115.965 Y104.066 E21.31065
G1 X103.813 Y128.314 E22.20471
G1 X102.946 Y129.767 E22.26048
G1 X101.927 Y131.118 E22.31626
G1 X100.768 Y132.350 E22.37203
G1 X99.482 Y133.450 E22.42781
G1 X98.630 Y134.056 E22.46229
G1 X98.084 Y134.404 E22.48360
G1 X96.592 Y135.201 E22.53938
G1 X95.256 Y135.756 E22.58708
G1 X78.548 Y141.606 E23.17062
G1 X77.981 Y141.753 E23.18991
G1 X76.970 Y141.959 E23.22394
G1 X76.314 Y142.042 E23.24574
G1 X75.360 Y142.106 E23.27723
G1 X74.661 Y142.108 E23.30029
G1 X73.051 Y141.963 E23.35356
G1 X71.473 Y141.613 E23.40687
G1 X54.731 Y135.677 E23.99240
G1 X53.051 Y134.889 E24.05356
G1 X51.477 Y133.907 E24.11471
G1 X50.568 Y133.208 E24.15252
G1 X50.031 Y132.745 E24.17589
G1 X48.732 Y131.420 E24.23704
G1 X47.578 Y129.915 E24.29956
G1 X46.651 Y128.356 E24.35934
G1 X46.011 Y126.975 E24.40952
G1 X37.447 Y105.555 E25.16996
G1 X21.868 Y63.486 E26.64873
G1 X21.567 Y62.269 E26.69009
G1 X21.435 Y61.269 E26.72331
G1 X21.382 Y60.500 E26.74873
G1 X21.382 Y19.500 E28.10024
G1 X21.779 Y17.427 E28.16981
G1 X22.807 Y15.812 E28.23293
G1 F600.000 E27.23293
G92 E0
G1 X122.185 Y29.944 F10500.000
G1 E1.00000 F600.000
G1 X121.447 Y29.898 E1.02438 F1500.000
G1 X120.744 Y29.669 E1.04876
G1 X120.120 Y29.273 E1.07313
G1 X120.032 Y29.180 E1.07734
G1 X119.613 Y28.734 E1.09751
G1 X119.257 Y28.086 E1.12189
G1 X119.073 Y27.370 E1.14627
G1 X119.073 Y26.630 E1.17065
G1 X119.257 Y25.914 E1.19502
G1 X119.613 Y25.266 E1.21940
G1 X120.119 Y24.727 E1.24378
G1 X120.744 Y24.330 E1.26816
G1 X121.447 Y24.102 E1.29254
G1 X122.185 Y24.056 E1.31690
G1 X122.311 Y24.079 E1.32112
G1 X122.912 Y24.194 E1.34129 F1500.000
G1 X123.581 Y24.509 E1.36567
G1 X124.151 Y24.980 E1.39005
G1 X124.585 Y25.579 E1.41443
G1 X124.858 Y26.266 E1.43880
G1 X124.950 Y27.000 E1.46318
G1 X124.858 Y27.734 E1.48756
G1 X124.585 Y28.421 E1.51194
G1 X124.151 Y29.020 E1.53632
G1 X123.581 Y29.491 E1.56069
G1 X122.912 Y29.806 E1.58506
G1 X122.259 Y29.930 E1.60698
G1 X122.146 Y29.323 F10500.000
G1 X121.564 Y29.286 E1.62621 F1500.000
G1 X121.009 Y29.106 E1.64545
G1 X120.516 Y28.793 E1.66468
G1 X120.093 Y28.324 E1.68550
G1 X119.836 Y27.857 E1.70309
G1 X119.691 Y27.292 E1.72233
G1 X119.691 Y26.708 E1.74156
G1 X119.836 Y26.143 E1.76079
G1 X120.117 Y25.632 E1.78003
G1 X120.516 Y25.207 E1.79926
G1 X121.009 Y24.894 E1.81849
G1 X121.564 Y24.714 E1.83772
G1 X122.096 Y24.680 E1.85531
G1 X122.719 Y24.786 E1.87614 F1500.000
G1 X123.247 Y25.035 E1.89537
G1 X123.697 Y25.407 E1.91461
G1 X124.040 Y25.879 E1.93384
G1 X124.254 Y26.421 E1.95307
G1 X124.328 Y27.000 E1.97230
G1 X124.254 Y27.579 E1.99154
G1 X124.040 Y28.121 E2.01077
G1 X123.697 Y28.593 E2.03000
G1 X123.247 Y28.965 E2.04923
G1 X122.719 Y29.214 E2.06846
G1 X122.220 Y29.309 E2.08523
G1 F600.000 E1.08523
G92 E0
G1 X122.130 Y24.181 F10500.000
G1 X52.588 Y97.070 F10500.000
G1 E1.00000 F600.000
G1 X53.111 Y97.790 E1.02934 F1500.000
G1 X53.439 Y98.617 E1.05867
G1 X53.550 Y99.500 E1.08801
G1 X53.439 Y100.383 E1.11734
G1 X53.111 Y101.210 E1.14668
G1 X52.680 Y101.803 E1.17084
G1 X52.588 Y101.930 E1.17602
G1 X51.902 Y102.498 E1.20535
G1 X51.097 Y102.877 E1.23469
G1 X50.223 Y103.043 E1.26402
G1 X49.335 Y102.987 E1.29336
G1 X48.488 Y102.712 E1.32270
G1 X47.737 Y102.236 E1.35203
G1 X47.128 Y101.587 E1.38137
G1 X46.699 Y100.807 E1.41070
G1 X46.478 Y99.945 E1.44004
G1 X46.478 Y99.055 E1.46938
G1 X46.699 Y98.193 E1.49871
G1 X47.128 Y97.413 E1.52805
G1 X47.235 Y97.299 E1.53323
G1 X47.737 Y96.764 E1.55738
G1 X48.488 Y96.288 E1.58672
G1 X49.335 Y96.013 E1.61605
G1 X50.223 Y95.957 E1.64539
G1 X50.377 Y95.986 E1.65057
G1 X51.097 Y96.123 E1.67473 F1500.000
G1 X51.902 Y96.502 E1.70406
G1 X52.530 Y97.022 E1.73092
G1 X52.134 Y97.496 F10500.000
G1 X52.565 Y98.090 E1.75511 F1500.000
G1 X52.836 Y98.772 E1.77931
G1 X52.928 Y99.500 E1.80350
G1 X52.836 Y100.228 E1.82769
G1 X52.565 Y100.910 E1.85188
G1 X52.181 Y101.440 E1.87346
G1 X52.134 Y101.504 E1.87607
G1 X51.569 Y101.972 E1.90026
G1 X50.905 Y102.284 E1.92445
G1 X50.184 Y102.422 E1.94864
G1 X49.451 Y102.376 E1.97283
G1 X48.753 Y102.149 E1.99702
G1 X48.134 Y101.756 E2.02121
G1 X47.632 Y101.221 E2.04540
G1 X47.593 Y101.151 E2.04801
G1 X47.278 Y100.578 E2.06959
G1 X47.096 Y99.867 E2.09378
G1 X47.096 Y99.133 E2.11797
G1 X47.278 Y98.422 E2.14216
G1 X47.632 Y97.779 E2.16635
G1 X48.134 Y97.244 E2.19054
G1 X48.753 Y96.851 E2.21473
G1 X49.451 Y96.624 E2.23892
G1 X50.105 Y96.583 E2.26051
G1 X50.184 Y96.578 E2.26311 F1500.000
G1 X50.905 Y96.716 E2.28730
G1 X51.569 Y97.028 E2.31149
G1 X52.076 Y97.448 E2.33321
G1 F600.000 E1.33321
G92 E0
G1 X50.069 Y96.513 F10500.000
G1 X32.912 Y29.806 F10500.000
G1 E1.00000 F600.000
G1 X32.185 Y29.944 E1.02438 F1500.000
G1 X31.447 Y29.898 E1.04876
G1 X30.744 Y29.669 E1.07315
G1 X30.120 Y29.273 E1.09751
G1 X29.613 Y28.734 E1.12190
G1 X29.257 Y28.086 E1.14627
G1 X29.073 Y27.370 E1.17065
G1 X29.073 Y26.630 E1.19504
G1 X29.257 Y25.914 E1.21941
G1 X29.613 Y25.266 E1.24379
G1 X30.119 Y24.727 E1.26817
G1 X30.744 Y24.331 E1.29254
G1 X31.447 Y24.102 E1.31692
G1 X32.185 Y24.056 E1.34129
G1 X32.311 Y24.079 E1.34551
G1 X32.912 Y24.194 E1.36568 F1500.000
G1 X33.581 Y24.509 E1.39005
G1 X34.151 Y24.980 E1.41443
G1 X34.585 Y25.579 E1.43881
G1 X34.632 Y25.698 E1.44302
G1 X34.858 Y26.267 E1.46320
G1 X34.950 Y27.000 E1.48757
G1 X34.858 Y27.734 E1.51194
G1 X34.585 Y28.421 E1.53633
G1 X34.151 Y29.020 E1.56070
G1 X33.581 Y29.491 E1.58508
G1 X32.980 Y29.774 E1.60698
G1 X32.719 Y29.214 F10500.000
G1 X32.146 Y29.323 E1.62621 F1500.000
G1 X31.564 Y29.286 E1.64545
G1 X31.009 Y29.106 E1.66468
G1 X30.516 Y28.793 E1.68391
G1 X30.117 Y28.368 E1.70315
G1 X29.836 Y27.857 E1.72238
G1 X29.691 Y27.292 E1.74161
G1 X29.691 Y26.708 E1.76084
G1 X29.836 Y26.143 E1.78007
G1 X30.117 Y25.632 E1.79931
G1 X30.516 Y25.207 E1.81854
G1 X31.009 Y24.894 E1.83777
G1 X31.564 Y24.714 E1.85701
G1 X32.096 Y24.680 E1.87460
G1 X32.719 Y24.786 E1.89542 F1500.000
G1 X33.247 Y25.035 E1.91466
G1 X33.726 Y25.447 E1.93548
G1 X34.040 Y25.879 E1.95307
G1 X34.254 Y26.421 E1.97231
G1 X34.328 Y27.000 E1.99154
G1 X34.254 Y27.579 E2.01077
G1 X34.040 Y28.121 E2.03001
G1 X33.697 Y28.593 E2.04924
G1 X33.247 Y28.965 E2.06847
G1 X32.787 Y29.182 E2.08523
G1 F600.000 E1.08523
G92 E0
G1 X32.109 Y24.180 F10500.000
G1 X32.185 Y54.056 F10500.000
G1 E1.00000 F600.000
G1 X32.311 Y54.079 E1.00422 F1500.000
G1 X32.912 Y54.194 E1.02438 F1500.000
G1 X33.581 Y54.509 E1.04876
G1 X34.151 Y54.980 E1.07313
G1 X34.585 Y55.579 E1.09751
G1 X34.858 Y56.266 E1.12190
G1 X34.950 Y57.000 E1.14627
G1 X34.858 Y57.734 E1.17065
G1 X34.585 Y58.421 E1.19503
G1 X34.151 Y59.020 E1.21941
G1 X33.581 Y59.491 E1.24378
G1 X32.912 Y59.806 E1.26816
G1 X32.786 Y59.830 E1.27237
G1 X32.185 Y59.944 E1.29254
G1 X31.447 Y59.898 E1.31692
G1 X30.744 Y59.669 E1.34130
G1 X30.119 Y59.273 E1.36567
G1 X29.613 Y58.734 E1.39005
G1 X29.257 Y58.086 E1.41443
G1 X29.073 Y57.370 E1.43881
G1 X29.073 Y56.630 E1.46319
G1 X29.257 Y55.914 E1.48756
G1 X29.613 Y55.266 E1.51194
G1 X30.119 Y54.727 E1.53632
G1 X30.744 Y54.331 E1.56070
G1 X31.447 Y54.102 E1.58508
G1 X32.110 Y54.060 E1.60698
G1 X32.146 Y54.677 F10500.000
G1 X32.719 Y54.786 E1.62622 F1500.000
G1 X33.247 Y55.035 E1.64545
G1 X33.697 Y55.407 E1.66468
G1 X34.058 Y55.925 E1.68551
G1 X34.254 Y56.421 E1.70310
G1 X34.328 Y57.000 E1.72233
G1 X34.254 Y57.579 E1.74156
G1 X34.040 Y58.121 E1.76080
G1 X33.697 Y58.593 E1.78003
G1 X33.247 Y58.965 E1.79926
G1 X32.719 Y59.214 E1.81849
G1 X32.146 Y59.323 E1.83773
G1 X31.564 Y59.286 E1.85696
G1 X31.056 Y59.121 E1.87455
G1 X30.516 Y58.793 E1.89538
G1 X30.117 Y58.368 E1.91461
G1 X29.836 Y57.857 E1.93384
G1 X29.691 Y57.292 E1.95307
G1 X29.691 Y56.708 E1.97231
G1 X29.836 Y56.143 E1.99154
G1 X30.117 Y55.632 E2.01077
G1 X30.516 Y55.207 E2.03001
G1 X31.009 Y54.894 E2.04924
G1 X31.564 Y54.714 E2.06847
G1 X32.071 Y54.682 E2.08523
G1 X32.440 Y54.272 F10500.000
G1 F600.000 E1.08523
G92 E0
G1 X46.699 Y50.807 F10500.000
G1 E1.00000 F600.000
G1 X46.478 Y49.945 E1.02934 F1500.000
G1 X46.478 Y49.055 E1.05867
G1 X46.699 Y48.193 E1.08801
G1 X47.128 Y47.413 E1.11734
G1 X47.737 Y46.764 E1.14668
G1 X48.488 Y46.288 E1.17602
G1 X49.335 Y46.013 E1.20535
G1 X50.223 Y45.957 E1.23469
G1 X50.377 Y45.986 E1.23987
G1 X51.097 Y46.123 E1.26402 F1500.000
G1 X51.902 Y46.502 E1.29336
G1 X52.588 Y47.070 E1.32269
G1 X53.111 Y47.790 E1.35203
G1 X53.439 Y48.617 E1.38137
G1 X53.550 Y49.500 E1.41070
G1 X53.439 Y50.383 E1.44004
G1 X53.111 Y51.210 E1.46937
G1 X52.588 Y51.930 E1.49871
G1 X51.902 Y52.498 E1.52805
G1 X51.097 Y52.877 E1.55738
G1 X50.223 Y53.043 E1.58672
G1 X49.335 Y52.987 E1.61605
G1 X48.488 Y52.712 E1.64539
G1 X47.737 Y52.236 E1.67473
G1 X47.128 Y51.587 E1.70406
G1 X46.735 Y50.873 E1.73092
G1 X47.278 Y50.578 F10500.000
G1 X47.096 Y49.867 E1.75511 F1500.000
G1 X47.096 Y49.133 E1.77931
G1 X47.278 Y48.422 E1.80350
G1 X47.632 Y47.779 E1.82769
G1 X48.134 Y47.244 E1.85188
G1 X48.753 Y46.851 E1.87607
G1 X49.451 Y46.624 E1.90026
G1 X50.105 Y46.583 E1.92184
G1 X50.184 Y46.578 E1.92445 F1500.000
G1 X50.905 Y46.716 E1.94864
G1 X51.569 Y47.028 E1.97283
G1 X52.134 Y47.496 E1.99702
G1 X52.565 Y48.090 E2.02121
G1 X52.836 Y48.772 E2.04540
G1 X52.928 Y49.500 E2.06959
G1 X52.836 Y50.228 E2.09378
G1 X52.565 Y50.910 E2.11797
G1 X52.134 Y51.504 E2.14216
G1 X51.569 Y51.972 E2.16635
G1 X50.905 Y52.284 E2.19054
G1 X50.184 Y52.422 E2.21473
G1 X49.451 Y52.376 E2.23892
G1 X48.753 Y52.149 E2.26311
G1 X48.134 Y51.756 E2.28730
G1 X47.632 Y51.221 E2.31149
G1 X47.314 Y50.643 E2.33321
G1 F600.000 E1.33321
G92 E0
G1 X50.114 Y46.505 F10500.000
G1 X59.084 Y50.177 F10500.000
G1 E1.00000 F600.000
G1 X59.057 Y49.366 E1.02675 F1500.000
G1 X59.125 Y48.018 E1.07124
G1 X59.308 Y46.681 E1.11573
G1 X59.602 Y45.363 E1.16023
G1 X60.007 Y44.076 E1.20472
G1 X60.520 Y42.827 E1.24921
G1 X61.136 Y41.626 E1.29370
G1 X61.852 Y40.482 E1.33819
G1 X62.662 Y39.402 E1.38269
G1 X63.560 Y38.395 E1.42718
G1 X64.540 Y37.467 E1.47167
G1 X65.595 Y36.626 E1.51616
G1 X66.648 Y35.923 E1.55787
G1 X67.900 Y35.225 E1.60513
G1 X69.133 Y34.675 E1.64963
G1 X70.408 Y34.232 E1.69412
G1 X71.715 Y33.898 E1.73861
G1 X73.047 Y33.676 E1.78310
G1 X74.392 Y33.568 E1.82759
G1 X75.657 Y33.573 E1.86930
G1 X77.086 Y33.693 E1.91657 F1500.000
G1 X78.416 Y33.927 E1.96106
G1 X79.721 Y34.271 E2.00555
G1 X80.992 Y34.725 E2.05004
G1 X82.220 Y35.285 E2.09453
G1 X83.396 Y35.946 E2.13903
G1 X84.513 Y36.705 E2.18352
G1 X85.561 Y37.556 E2.22801
G1 X86.533 Y38.492 E2.27250
G1 X87.423 Y39.506 E2.31699
G1 X88.224 Y40.593 E2.36148
G1 X88.930 Y41.743 E2.40598
G1 X89.536 Y42.949 E2.45047
G1 X90.038 Y44.202 E2.49496
G1 X90.432 Y45.493 E2.53945
G1 X90.716 Y46.813 E2.58394
G1 X90.887 Y48.151 E2.62843
G1 X90.944 Y49.513 E2.67334
G1 X90.793 Y51.699 E2.74558
G1 X90.339 Y53.855 E2.81823
G1 X89.608 Y55.883 E2.88926
G1 X88.844 Y57.794 E2.95711
G1 X88.229 Y59.707 E3.02334
G1 X87.747 Y61.657 E3.08958
G1 X87.401 Y63.637 E3.15581
G1 X87.193 Y65.635 E3.22205
G1 X87.123 Y67.660 E3.28882
G1 X87.123 Y81.340 E3.73979
G1 X87.193 Y83.365 E3.80656
G1 X87.401 Y85.363 E3.87280
G1 X87.747 Y87.343 E3.93903
G1 X88.229 Y89.293 E4.00527
G1 X88.844 Y91.206 E4.07150
G1 X89.608 Y93.117 E4.13935
G1 X90.339 Y95.145 E4.21039
G1 X90.793 Y97.301 E4.28304
G1 X90.944 Y99.487 E4.35527
G1 X90.887 Y100.848 E4.40018
G1 X90.716 Y102.187 E4.44467
G1 X90.432 Y103.507 E4.48916
G1 X90.038 Y104.798 E4.53365
